source/img/sprite/logo-rd.svg

<svg width="16" height="15" viewBox="0 0 16 15" fill="none" xmlns="http://www.w3.org/2000/svg">
<path d="M9.28065 0C8.80424 0 8.35718 0.244007 8.07043 0.59589C7.78368 0.947774 7.62563 1.37671 7.51048 1.82877C7.32759 2.55565 7.27114 3.36216 7.2576 4.08904C5.91867 4.17894 4.70619 4.57962 3.69918 5.19863C3.29051 4.85188 2.79829 4.65925 2.32639 4.66438C1.78902 4.66952 1.27874 4.90325 0.899414 5.38356C0.174635 6.30051 0.258177 7.80051 1.09811 8.69178C1.04618 8.96661 1.00779 9.24914 1.00779 9.53425C1.00779 12.5548 4.06496 15 7.83561 15C11.6063 15 14.6634 12.5522 14.6634 9.53425C14.6634 9.24914 14.625 8.96661 14.5731 8.69178C15.413 7.80051 15.4966 6.30051 14.7718 5.38356C14.3925 4.90325 13.8822 4.66952 13.3448 4.66438C12.8729 4.65925 12.3807 4.85188 11.972 5.19863C10.9695 4.58219 9.76384 4.18151 8.43169 4.08904C8.44975 3.41866 8.49717 2.7226 8.63038 2.19863C8.71393 1.86986 8.81327 1.63099 8.91939 1.5C9.02551 1.36901 9.10228 1.31507 9.28065 1.31507C9.66675 1.31507 9.71642 1.44092 9.94899 1.74658C10.0664 1.90068 10.2019 2.09332 10.4186 2.28082C10.6354 2.46832 10.956 2.63014 11.3037 2.63014V1.31507C11.2066 1.31507 11.1886 1.3125 11.1231 1.25342C11.0576 1.19435 10.9673 1.05822 10.8341 0.883562C10.5676 0.531678 10.0506 0 9.28065 0ZM13.0378 0.123288C12.1391 0.123288 11.4121 0.950343 11.4121 1.9726C11.4121 2.99486 12.1391 3.82192 13.0378 3.82192C13.9364 3.82192 14.6634 2.99486 14.6634 1.9726C14.6634 0.950343 13.9364 0.123288 13.0378 0.123288ZM13.0378 0.780822C13.6158 0.780822 14.0854 1.31507 14.0854 1.9726C14.0854 2.63014 13.6158 3.16438 13.0378 3.16438C12.4597 3.16438 11.9901 2.63014 11.9901 1.9726C11.9901 1.31507 12.4597 0.780822 13.0378 0.780822ZM7.83561 5.11644C11.035 5.11644 13.7422 7.14298 13.7422 9.53425C13.7422 11.9281 11.035 13.9521 7.83561 13.9521C4.6362 13.9521 1.92901 11.9281 1.92901 9.53425C1.92901 7.14298 4.6362 5.11644 7.83561 5.11644ZM2.34445 5.71233C2.50476 5.7149 2.67185 5.75599 2.83216 5.83562C2.25188 6.33647 1.79128 6.91182 1.47743 7.56164C1.26067 7.05308 1.31938 6.41866 1.58581 6.08219C1.77999 5.83562 2.04867 5.70976 2.34445 5.71233ZM13.3268 5.71233C13.6226 5.70976 13.8912 5.83562 14.0854 6.08219C14.3518 6.41866 14.4106 7.05308 14.1938 7.56164C13.8799 6.91182 13.4193 6.33647 12.8391 5.83562C12.9994 5.75599 13.1665 5.7149 13.3268 5.71233ZM5.52355 7.35616C4.94553 7.35616 4.47589 7.89041 4.47589 8.54795C4.47589 9.20548 4.94553 9.73973 5.52355 9.73973C6.10156 9.73973 6.5712 9.20548 6.5712 8.54795C6.5712 7.89041 6.10156 7.35616 5.52355 7.35616ZM10.1477 7.35616C9.56966 7.35616 9.10002 7.89041 9.10002 8.54795C9.10002 9.20548 9.56966 9.73973 10.1477 9.73973C10.7257 9.73973 11.1953 9.20548 11.1953 8.54795C11.1953 7.89041 10.7257 7.35616 10.1477 7.35616ZM4.96359 11.4041C5.33163 12.2697 6.4696 13.1096 7.83561 13.1096C9.20163 13.1096 10.3577 12.2697 10.7257 11.4041C10.0574 11.8947 9.00293 12.226 7.83561 12.226C6.66829 12.226 5.63192 11.8947 4.96359 11.4041Z" fill="#2D383F"/>
</svg>

<svg viewBox="0 0 16 15" fill="none" xmlns="http://www.w3.org/2000/svg"><path d="M9.28 0c-.48 0-.92.24-1.21.6-.29.35-.44.78-.56 1.23-.18.73-.24 1.53-.25 2.26a7.9 7.9 0 0 0-3.56 1.1c-.4-.34-.9-.53-1.37-.53a1.8 1.8 0 0 0-1.43.72c-.73.92-.64 2.42.2 3.31-.05.28-.1.56-.1.84 0 3.02 3.06 5.47 6.84 5.47 3.77 0 6.82-2.45 6.82-5.47 0-.28-.04-.56-.09-.84.84-.89.93-2.39.2-3.3a1.8 1.8 0 0 0-1.43-.73c-.47 0-.96.2-1.37.54-1-.62-2.2-1.02-3.54-1.11a9.8 9.8 0 0 1 .2-1.9c.08-.32.18-.56.29-.69.1-.13.18-.18.36-.18.39 0 .44.12.67.43.12.15.25.34.47.53.22.19.54.35.88.35v-1.31c-.1 0-.11 0-.18-.07-.06-.06-.15-.2-.29-.37-.26-.35-.78-.88-1.55-.88Zm3.76.12c-.9 0-1.63.83-1.63 1.85s.73 1.85 1.63 1.85c.9 0 1.62-.83 1.62-1.85s-.72-1.85-1.62-1.85Zm0 .66c.58 0 1.05.54 1.05 1.2 0 .65-.47 1.18-1.05 1.18-.58 0-1.05-.53-1.05-1.19 0-.65.47-1.19 1.05-1.19Zm-5.2 4.34c3.2 0 5.9 2.02 5.9 4.41 0 2.4-2.7 4.42-5.9 4.42s-5.91-2.02-5.91-4.42c0-2.39 2.7-4.41 5.9-4.41Zm-5.5.6c.16 0 .33.04.5.12a5.38 5.38 0 0 0-1.36 1.72c-.22-.5-.16-1.14.1-1.48.2-.24.47-.37.76-.37Zm10.99 0c.3-.01.56.12.76.36.26.34.32.97.1 1.48a5.38 5.38 0 0 0-1.35-1.72c.16-.08.33-.13.49-.13Zm-7.8 1.64c-.58 0-1.05.53-1.05 1.19 0 .66.47 1.19 1.04 1.19.58 0 1.05-.53 1.05-1.2 0-.65-.47-1.18-1.05-1.18Zm4.62 0c-.58 0-1.05.53-1.05 1.19 0 .66.47 1.19 1.05 1.19.58 0 1.05-.53 1.05-1.2 0-.65-.47-1.18-1.05-1.18Zm-5.19 4.04c.37.87 1.51 1.71 2.88 1.71 1.36 0 2.52-.84 2.89-1.7-.67.48-1.73.82-2.9.82-1.16 0-2.2-.34-2.87-.83Z" fill="#2D383F"/></svg>
